svg/icon/ant.svg

<svg height="32" viewBox="0 0 32 32" width="32" xmlns="http://www.w3.org/2000/svg" xmlns:xlink="http://www.w3.org/1999/xlink"><defs><linearGradient id="a" x1="50%" x2="50%" y1="0%" y2="100%"><stop offset="0" stop-color="#fff" stop-opacity=".5"/><stop offset="1" stop-opacity=".5"/></linearGradient><circle id="b" cx="16" cy="15" r="15"/><filter id="c" height="111.7%" width="111.7%" x="-5.8%" y="-4.2%"><feOffset dy=".5" in="SourceAlpha" result="shadowOffsetOuter1"/><feGaussianBlur in="shadowOffsetOuter1" result="shadowBlurOuter1" stdDeviation=".5"/><feComposite in="shadowBlurOuter1" in2="SourceAlpha" operator="out" result="shadowBlurOuter1"/><feColorMatrix in="shadowBlurOuter1" values="0 0 0 0 0   0 0 0 0 0   0 0 0 0 0  0 0 0 0.199473505 0"/></filter><path id="d" d="m7.96464992 16.5975269c-.00608594-.1016719-.00928035-.2069266-.00928035-.3161882 0-3.5168567 2.74133863-6.37642029 6.17142143-6.4983922.081831 0 .1704813 0 .2523123.00677622l-.8183101-.81314605s3.2936979-.54887359 7.521633 1.99220783c0 0 .0613733.1287481 0 .5082163 0 0 1.9912211.8538033 2.1617024 2.5139765.1704812 1.6601732-.8865026 2.6088436-1.7389088 2.744368 0 0 .4432512-.684398-.2386738-1.0503137-.1432043-.0813146-.3136855-.1151957-.4841668-.1084195-1.3024768 0-1.4525003 1.4772154-1.4525003 1.4772154-.0136385.0745384-.0136385.1490767-.0136385.2236151 0 0-.1896221 1.8783667 2.9221933 2.1002032.6877935-.881102 1.3105732-1.8630868 1.860597-2.9348428.5752848-1.1224673 1.0344213-2.2738384 1.3899173-3.4066485.2140315-.6820245.3647992-1.2712085.4628967-1.7387958-1.8124177-1.48674955-3.9512633-2.76074598-6.2506515-3.8276889-.8609734-.3995017-1.6966607-.74715031-2.4867875-1.04466805-.4886634-.18400345-.8877676-.32249915-1.2194691-.42981547-.322444.10364236-.7316714.24539091-1.2217286.42983072-.7892112.29703058-1.6252262.64487048-2.4863858 1.04463355-2.29726495 1.06642443-4.43562543 2.34077345-6.24850081 3.82800615.09783453.4726846.2471077 1.0614941.4608103 1.7456119.35430505 1.1342229.81394515 2.2873647 1.39236873 3.4130868.02423953.0472323.04862289.0942897.0731495.1411715zm19.03535008-5.6957484-.0496255.2794368c-.0264897.2173058-.2034597.9953596-.4217155 1.7403435-.3803246 1.2981815-.8970192 2.6398869-1.5685524 3.9504312-.9056875 1.765594-2.0062403 3.3063505-3.2679733 4.5738987-1.557605 1.5615952-3.358826 2.7143239-5.3674106 3.4325696l-.111863.0392319-.212998.0823098-.2113067-.0741082-.117505-.0412161c-2.0128477-.7197755-3.8197614-1.8750269-5.3665478-3.4327301-1.26770287-1.2804673-2.36621169-2.8166323-3.26742725-4.5735091-.67087978-1.312272-1.1857226-2.6526095-1.5658673-3.9527826-.13333208-.4560232-.24038755-.8748756-.32431005-1.2502108-.05026988-.2248272-.10518089-.5043951-.09520365-.464738l-.05169395-.2872307.11966831-.1006188.0885263-.0744341c1.84387724-1.55223108 4.02508084-2.88385331 6.38010879-4.00266209 1.5689765-.7453774 3.003322-1.29884137 4.0865047-1.64626142l.318595-.09949799.2166274.06457809.107698.03555466c1.0811772.34678529 2.5155228.90024926 4.0844992 1.64562666 2.3513555 1.11706409 4.5294284 2.44627842 6.3714803 3.99540199zm-7.6019286.7242991c.054554-.0271049.2318545-.1151957.436432-.3252585.4091551.0542098.8114908.1829579.8114908.1829579-.7432983-.4472303-1.7593665-.7115028-2.8845428-.7047266 0 0 .4296127.6098596 1.6229815.8605796 0 0 .0068193-.0067762.0136385-.0135524z"/><filter id="e" height="117.5%" width="115.9%" x="-8%" y="-6.2%"><feOffset dy=".5" in="SourceAlpha" result="shadowOffsetOuter1"/><feGaussianBlur in="shadowOffsetOuter1" result="shadowBlurOuter1" stdDeviation=".5"/><feColorMatrix in="shadowBlurOuter1" values="0 0 0 0 0   0 0 0 0 0   0 0 0 0 0  0 0 0 0.204257246 0"/></filter></defs><g fill="none" fill-rule="evenodd"><use fill="#000" filter="url(#c)" xlink:href="#b"/><use fill="#2cd3e1" xlink:href="#b"/><use fill="url(#a)" xlink:href="#b"/><circle cx="16" cy="15" r="14.5" stroke="#000" stroke-opacity=".097"/><g fill-rule="nonzero"><use fill="#000" filter="url(#e)" xlink:href="#d"/><use fill="#fff" fill-rule="evenodd" xlink:href="#d"/></g></g></svg>

<svg xmlns="http://www.w3.org/2000/svg" xmlns:xlink="http://www.w3.org/1999/xlink" width="32" height="32" viewBox="0 0 32 32">
  <defs>
    <linearGradient id="ant-c" x1="50%" x2="50%" y1="0%" y2="100%">
      <stop offset="0%" stop-color="#FFF" stop-opacity=".5"/>
      <stop offset="100%" stop-opacity=".5"/>
    </linearGradient>
    <circle id="ant-b" cx="16" cy="15" r="15"/>
    <filter id="ant-a" width="111.7%" height="111.7%" x="-5.8%" y="-4.2%" filterUnits="objectBoundingBox">
      <feOffset dy=".5" in="SourceAlpha" result="shadowOffsetOuter1"/>
      <feGaussianBlur in="shadowOffsetOuter1" result="shadowBlurOuter1" stdDeviation=".5"/>
      <feComposite in="shadowBlurOuter1" in2="SourceAlpha" operator="out" result="shadowBlurOuter1"/>
      <feColorMatrix in="shadowBlurOuter1" values="0 0 0 0 0   0 0 0 0 0   0 0 0 0 0  0 0 0 0.199473505 0"/>
    </filter>
    <path id="ant-e" d="M7.96464992,16.5975269 C7.95856398,16.495855 7.95536957,16.3906003 7.95536957,16.2813387 C7.95536957,12.764482 10.6967082,9.90491841 14.126791,9.7829465 C14.208622,9.7829465 14.2972723,9.7829465 14.3791033,9.78972272 L13.5607932,8.97657667 C13.5607932,8.97657667 16.8544911,8.42770308 21.0824262,10.9687845 C21.0824262,10.9687845 21.1437995,11.0975326 21.0824262,11.4770008 C21.0824262,11.4770008 23.0736473,12.3308041 23.2441286,13.9909773 C23.4146098,15.6511505 22.357626,16.5998209 21.5052198,16.7353453 C21.5052198,16.7353453 21.948471,16.0509473 21.266546,15.6850316 C21.1233417,15.603717 20.9528605,15.5698359 20.7823792,15.5766121 C19.4799024,15.5766121 19.3298789,17.0538275 19.3298789,17.0538275 C19.3162404,17.1283659 19.3162404,17.2029042 19.3162404,17.2774426 C19.3162404,17.2774426 19.1266183,19.1558093 22.2384337,19.3776458 C22.9262272,18.4965438 23.5490069,17.514559 24.0990307,16.442803 C24.6743155,15.3203357 25.133452,14.1689646 25.488948,13.0361545 C25.7029795,12.35413 25.8537472,11.764946 25.9518447,11.2973587 C24.139427,9.81060915 22.0005814,8.53661272 19.7011932,7.4696698 C18.8402198,7.0701681 18.0045325,6.72251949 17.2144057,6.42500175 C16.7257423,6.2409983 16.3266381,6.1025026 15.9949366,5.99518628 C15.6724926,6.09882864 15.2632652,6.24057719 14.773208,6.425017 C13.9839968,6.72204758 13.1479818,7.06988748 12.2868222,7.46965055 C9.98955725,8.53607498 7.85119677,9.810424 6.03832139,11.2976567 C6.13615592,11.7703413 6.28542909,12.3591508 6.49913169,13.0432686 C6.85343674,14.1774915 7.31307684,15.3306333 7.89150042,16.4563554 C7.91573995,16.5035877 7.94012331,16.5506451 7.96464992,16.5975269 Z M27,10.9017785 L26.9503745,11.1812153 C26.9238848,11.3985211 26.7469148,12.1765749 26.528659,12.9215588 C26.1483344,14.2197403 25.6316398,15.5614457 24.9601066,16.87199 C24.0544191,18.637584 22.9538663,20.1783405 21.6921333,21.4458887 C20.1345283,23.0074839 18.3333073,24.1602126 16.3247227,24.8784583 L16.2128597,24.9176902 L15.9998617,25 L15.788555,24.9258918 L15.67105,24.8846757 C13.6582023,24.1649002 11.8512886,23.0096488 10.3045022,21.4519456 C9.03679933,20.1714783 7.93829051,18.6353133 7.03707495,16.8784365 C6.36619517,15.5661645 5.85135235,14.225827 5.47120765,12.9256539 C5.33787557,12.4696307 5.2308201,12.0507783 5.1468976,11.6754431 C5.09662772,11.4506159 5.04171671,11.171048 5.05169395,11.2107051 L5,10.9234744 L5.11966831,10.8228556 L5.20819461,10.7484215 C7.05207185,9.19619042 9.23327545,7.86456819 11.5883034,6.74575941 C13.1572799,6.00038201 14.5916254,5.44691804 15.6748081,5.09949799 L15.9934031,5 L16.2100305,5.06457809 L16.3177285,5.10013275 C17.3989057,5.44691804 18.8332513,6.00038201 20.4022277,6.74575941 C22.7535832,7.8628235 24.9316561,9.19203783 26.773708,10.7411614 L27,10.9017785 Z M19.3980714,11.6260776 C19.4526254,11.5989727 19.6299259,11.5108819 19.8345034,11.3008191 C20.2436585,11.3550289 20.6459942,11.483777 20.6459942,11.483777 C19.9026959,11.0365467 18.8866277,10.7722742 17.7614514,10.7790504 C17.7614514,10.7790504 18.1910641,11.38891 19.3844329,11.63963 C19.3844329,11.63963 19.3912522,11.6328538 19.3980714,11.6260776 Z"/>
    <filter id="ant-d" width="115.9%" height="117.5%" x="-8%" y="-6.2%" filterUnits="objectBoundingBox">
      <feOffset dy=".5" in="SourceAlpha" result="shadowOffsetOuter1"/>
      <feGaussianBlur in="shadowOffsetOuter1" result="shadowBlurOuter1" stdDeviation=".5"/>
      <feColorMatrix in="shadowBlurOuter1" values="0 0 0 0 0   0 0 0 0 0   0 0 0 0 0  0 0 0 0.204257246 0"/>
    </filter>
  </defs>
  <g fill="none" fill-rule="evenodd">
    <use fill="#000" filter="url(#ant-a)" xlink:href="#ant-b"/>
    <use fill="#2CD3E1" xlink:href="#ant-b"/>
    <use fill="url(#ant-c)" style="mix-blend-mode:soft-light" xlink:href="#ant-b"/>
    <circle cx="16" cy="15" r="14.5" stroke="#000" stroke-opacity=".097"/>
    <g fill-rule="nonzero">
      <use fill="#000" filter="url(#ant-d)" xlink:href="#ant-e"/>
      <use fill="#FFF" fill-rule="evenodd" xlink:href="#ant-e"/>
    </g>
  </g>
</svg>
